_includes/svg/logo-rubycaribe.svg

<svg width="265" height="48" viewBox="0 0 265 48" xmlns="http://www.w3.org/2000/svg" xmlns:xlink="http://www.w3.org/1999/xlink" aria-labelledby="title">
  <title>
    RubyCaribe
  </title>
  <defs>
    <path id="a" d="M68.902 47.214H0V.14h68.902v47.074z"/>
  </defs>
  <g fill="none" fill-rule="evenodd">
    <path fill="#5AB2D5" d="M1.377 12.058L23.425 33.96V23.01H34.45L12.4 1.107 1.377 12.057"/>
    <path fill="#FFF" d="M12.4 1.107L34.45 23.01l11.026-10.952L34.45 1.108H12.4"/>
    <path fill="#C0372B" d="M34.45 1.107H56.5l11.027 10.95-22.05 21.904V12.06L34.452 1.108"/>
    <g>
      <mask id="b" fill="#fff">
        <use xlink:href="#a"/>
      </mask>
      <path fill="#E2B92B" mask="url(#b)" d="M34.45 23.01v21.903L45.477 33.96V12.06L34.45 23.01"/>
      <path
        d="M14.753 2.074h19.294l10.05 9.984-9.646 9.583L14.754 2.075zm9.076 19.968l-4.54-4.507 4.135-4.108 8.674 8.615h-8.27zm-1.378 9.583L2.754 12.058 12.4 2.475l9.65 9.583-5.514 5.477 5.916 5.875v8.215zm33.644-29.55l10.05 9.983-19.697 19.567V11.657L36.8 2.074h19.294zm-20.67 40.502V23.41l9.075-9.016V33.56l-9.075 9.017zm-1.95 4.67l35.426-35.19-12-11.917H12L0 12.058l24.4 24.238v-12.32h9.076V47.25z"
        fill="#1B1A18"
        mask="url(#b)"/>
    </g>
    <path
      d="M33.75 9.32a2.05 2.05 0 0 1-2.055 2.043A2.05 2.05 0 0 1 29.64 9.32a2.05 2.05 0 0 1 2.055-2.042A2.05 2.05 0 0 1 33.75 9.32M96.21 21.507c3.526 0 4.69-1.77 4.69-3.682s-1.2-3.68-4.69-3.68h-3.56v7.362h3.56zm-10.753 7.976h2.98v-15.34h-2.98v-3.32H96.14c6.54 0 9.01 3.574 9.01 6.93 0 2.563-1.454 4.91-4.47 5.883l3.343 5.847h2.725v3.32h-5.595l-4.54-8.048H92.65v4.728h2.98v3.32H85.457v-3.32zM110.452 28.365v-7.977h-2.434v-3.176h6.54v10.755c0 1.3.472 2.02 1.925 2.02 1.563 0 3.125-.83 4.36-1.768v-7.832h-2.725v-3.176h6.83v12.415h2.4v3.176h-6.396V30.89c-1.525 1.227-3.45 2.31-5.813 2.31-2.87 0-4.688-1.624-4.688-4.835M141.443 24.72c0-2.563-.945-4.873-3.816-4.873-1.162 0-2.252.36-3.197.866v9.347c.437.037.945.072 1.454.072 3.742 0 5.56-1.84 5.56-5.413zm-11.118 7.903v-22.16h-2.4V7.288h6.505v10.61a8.466 8.466 0 0 1 4.214-1.082c4.433 0 6.977 2.996 6.977 7.868 0 5.774-3.596 8.517-9.554 8.517-1.962 0-4.325-.288-5.74-.577zM148.27 39.19l1.164-2.706c.763.398 1.562.794 2.652.794.836 0 1.925-.216 2.434-1.804l.836-2.67h-3.016l-3.633-12.45h-1.852V17.21h8.174v3.176h-2.108l2.906 10.972 3.56-10.972h-2.143v-3.176h7.92v3.14h-1.78l-5.268 15.627c-.945 2.815-2.543 4.402-5.45 4.402-1.635 0-3.27-.505-4.396-1.19M167.15 21.94c0-7.29 4.904-11.548 11.806-11.548 3.56 0 6.867 1.118 8.247 1.768v6.316h-4.033v-4.043c-1.053-.29-2.616-.542-3.996-.542-4.54 0-7.665 2.78-7.665 7.833 0 5.198 3.34 7.904 7.918 7.904 3.016 0 5.776-1.155 7.738-2.31v4.006c-1.524.794-4.396 1.914-8.1 1.914-7.267 0-11.917-4.223-11.917-11.297M199.227 28.617v-2.49h-2.398c-2.144 0-3.38.54-3.38 2.128 0 .975.473 2.06 2.253 2.06 1.526 0 2.69-.832 3.524-1.698zm-9.883-.18c0-3.754 3.234-4.837 7.304-4.837h2.58v-.974c0-1.877-.765-2.707-3.38-2.707-1.89 0-3.997.433-5.196.793V17.68c1.417-.432 3.816-.865 6.067-.865 4.214 0 6.612 1.48 6.612 5.74v7.072h2.326v3.176h-6.213v-1.768c-1.018 1.046-2.616 2.165-4.977 2.165-2.943 0-5.124-1.696-5.124-4.763zM207.183 29.627h2.397v-9.24h-2.397v-3.175h6.358v2.852c.8-1.48 2.362-3.25 5.197-3.25h.326v4.115h-.654c-2.327 0-3.852.47-4.724 1.01v7.687h2.724v3.176h-9.227v-3.176M225.02 9.344c1.562 0 2.834 1.264 2.834 2.816 0 1.552-1.272 2.815-2.834 2.815s-2.834-1.263-2.834-2.815 1.272-2.816 2.834-2.816zm-4.25 20.283h2.397v-9.24h-2.398v-3.175h6.502v12.415h2.397v3.176h-8.9v-3.176zM243.766 24.72c0-2.563-.944-4.873-3.814-4.873-1.163 0-2.253.36-3.198.866v9.347c.436.037.945.072 1.454.072 3.742 0 5.558-1.84 5.558-5.413zm-11.117 7.903v-22.16h-2.4V7.288h6.504v10.61a8.467 8.467 0 0 1 4.215-1.082c4.432 0 6.974 2.996 6.974 7.868 0 5.774-3.596 8.517-9.555 8.517-1.963 0-4.324-.288-5.74-.577zM254.193 23.456h6.938c-.144-1.84-.87-3.682-3.267-3.682-2.363 0-3.38 1.733-3.67 3.682zm-4.107 1.552c0-4.728 2.726-8.193 7.704-8.193 4.94 0 7.194 3.465 7.194 7.76a9.53 9.53 0 0 1-.147 1.73H254.23c.4 2.456 1.888 3.792 4.72 3.792 2.145 0 3.817-.794 5.052-1.444v3.14c-1.235.686-3.125 1.407-5.668 1.407-5.522 0-8.248-3.465-8.248-8.192z"
      fill="#1B1A18"/>
  </g>
</svg>

<?xml version="1.0" encoding="UTF-8" standalone="no"?>
<svg width="265px" height="48px" viewBox="0 0 265 48" version="1.1" xmlns="http://www.w3.org/2000/svg" xmlns:xlink="http://www.w3.org/1999/xlink">
    <!-- Generator: Sketch 39.1 (31720) - http://www.bohemiancoding.com/sketch -->
    <title>logo-rubycaribe</title>
    <desc>Created with Sketch.</desc>
    <defs>
        <polygon id="path-1" points="68.902 47.214 0 47.214 0 0.14 68.902 0.14"></polygon>
        <polygon id="path-3" points="68.902 47.214 0 47.214 0 0.14 68.902 0.14"></polygon>
    </defs>
    <g id="Page-1" stroke="none" stroke-width="1" fill="none" fill-rule="evenodd">
        <g id="logo-rubycaribe">
            <g id="Group">
                <polyline id="Shape" fill="#5AB2D5" points="1.377 12.058 23.425 33.96 23.425 23.01 34.45 23.01 12.4 1.107 1.377 12.057"></polyline>
                <polyline id="Shape" fill="#FFFFFF" points="12.4 1.107 34.45 23.01 45.476 12.058 34.45 1.108 12.4 1.108"></polyline>
                <polyline id="Shape" fill="#C0372B" points="34.45 1.107 56.5 1.107 67.527 12.057 45.477 33.961 45.477 12.06 34.452 1.108"></polyline>
                <g id="Clipped">
                    <g>
                        <mask id="mask-2" fill="white">
                            <use xlink:href="#path-1"></use>
                        </mask>
                        <g id="a"></g>
                        <polyline id="Shape" fill="#E2B92B" mask="url(#mask-2)" points="34.45 23.01 34.45 44.913 45.477 33.96 45.477 12.06 34.45 23.01"></polyline>
                    </g>
                    <g>
                        <mask id="mask-4" fill="white">
                            <use xlink:href="#path-3"></use>
                        </mask>
                        <g id="a"></g>
                        <path d="M14.753,2.074 L34.047,2.074 L44.097,12.058 L34.451,21.641 L14.754,2.075 L14.753,2.074 Z M23.829,22.042 L19.289,17.535 L23.424,13.427 L32.098,22.042 L23.828,22.042 L23.829,22.042 Z M22.451,31.625 L2.754,12.058 L12.4,2.475 L22.05,12.058 L16.536,17.535 L22.452,23.41 L22.452,31.625 L22.451,31.625 Z M56.095,2.075 L66.145,12.058 L46.448,31.625 L46.448,11.657 L36.8,2.074 L56.094,2.074 L56.095,2.075 Z M35.425,42.577 L35.425,23.41 L44.5,14.394 L44.5,33.56 L35.425,42.577 L35.425,42.577 Z M33.475,47.247 L68.901,12.057 L56.901,0.14 L12,0.14 L0,12.058 L24.4,36.296 L24.4,23.976 L33.476,23.976 L33.476,47.25 L33.475,47.247 Z" id="Shape" fill="#1B1A18" mask="url(#mask-4)"></path>
                    </g>
                </g>
                <path d="M33.75,9.32 C33.74614,10.4514032 32.8264064,11.3657661 31.695,11.363 C30.5635936,11.3657661 29.64386,10.4514032 29.64,9.32 C29.6444104,8.18898778 30.5639826,7.27523281 31.695,7.278 C32.8260174,7.27523281 33.7455896,8.18898778 33.75,9.32 L33.75,9.32 Z M96.21,21.507 C99.736,21.507 100.9,19.737 100.9,17.825 C100.9,15.913 99.7,14.145 96.21,14.145 L92.65,14.145 L92.65,21.507 L96.21,21.507 L96.21,21.507 Z M85.457,29.483 L88.437,29.483 L88.437,14.143 L85.457,14.143 L85.457,10.823 L96.14,10.823 C102.68,10.823 105.15,14.397 105.15,17.753 C105.15,20.316 103.696,22.663 100.68,23.636 L104.023,29.483 L106.748,29.483 L106.748,32.803 L101.153,32.803 L96.613,24.755 L92.65,24.755 L92.65,29.483 L95.63,29.483 L95.63,32.803 L85.457,32.803 L85.457,29.483 L85.457,29.483 Z M110.452,28.365 L110.452,20.388 L108.018,20.388 L108.018,17.212 L114.558,17.212 L114.558,27.967 C114.558,29.267 115.03,29.987 116.483,29.987 C118.046,29.987 119.608,29.157 120.843,28.219 L120.843,20.387 L118.118,20.387 L118.118,17.211 L124.948,17.211 L124.948,29.626 L127.348,29.626 L127.348,32.802 L120.952,32.802 L120.952,30.89 C119.427,32.117 117.502,33.2 115.139,33.2 C112.269,33.2 110.451,31.576 110.451,28.365 L110.452,28.365 Z M141.443,24.72 C141.443,22.157 140.498,19.847 137.627,19.847 C136.465,19.847 135.375,20.207 134.43,20.713 L134.43,30.06 C134.867,30.097 135.375,30.132 135.884,30.132 C139.626,30.132 141.444,28.292 141.444,24.719 L141.443,24.72 Z M130.325,32.623 L130.325,10.463 L127.925,10.463 L127.925,7.288 L134.43,7.288 L134.43,17.898 C135.716427,17.1763985 137.169061,16.8034155 138.644,16.816 C143.077,16.816 145.621,19.812 145.621,24.684 C145.621,30.458 142.025,33.201 136.067,33.201 C134.105,33.201 131.742,32.913 130.327,32.624 L130.325,32.623 Z M148.27,39.19 L149.434,36.484 C150.197,36.882 150.996,37.278 152.086,37.278 C152.922,37.278 154.011,37.062 154.52,35.474 L155.356,32.804 L152.34,32.804 L148.707,20.354 L146.855,20.354 L146.855,17.21 L155.029,17.21 L155.029,20.386 L152.921,20.386 L155.827,31.358 L159.387,20.386 L157.244,20.386 L157.244,17.21 L165.164,17.21 L165.164,20.35 L163.384,20.35 L158.116,35.977 C157.171,38.792 155.573,40.379 152.666,40.379 C151.031,40.379 149.396,39.874 148.27,39.189 L148.27,39.19 Z M167.15,21.94 C167.15,14.65 172.054,10.392 178.956,10.392 C182.516,10.392 185.823,11.51 187.203,12.16 L187.203,18.476 L183.17,18.476 L183.17,14.433 C182.117,14.143 180.554,13.891 179.174,13.891 C174.634,13.891 171.509,16.671 171.509,21.724 C171.509,26.922 174.849,29.628 179.427,29.628 C182.443,29.628 185.203,28.473 187.165,27.318 L187.165,31.324 C185.641,32.118 182.769,33.238 179.065,33.238 C171.798,33.238 167.148,29.015 167.148,21.941 L167.15,21.94 Z M199.227,28.617 L199.227,26.127 L196.829,26.127 C194.685,26.127 193.449,26.667 193.449,28.255 C193.449,29.23 193.922,30.315 195.702,30.315 C197.228,30.315 198.392,29.483 199.226,28.617 L199.227,28.617 Z M189.344,28.437 C189.344,24.683 192.578,23.6 196.648,23.6 L199.228,23.6 L199.228,22.626 C199.228,20.749 198.463,19.919 195.848,19.919 C193.958,19.919 191.851,20.352 190.652,20.712 L190.652,17.68 C192.069,17.248 194.468,16.815 196.719,16.815 C200.933,16.815 203.331,18.295 203.331,22.555 L203.331,29.627 L205.657,29.627 L205.657,32.803 L199.444,32.803 L199.444,31.035 C198.426,32.081 196.828,33.2 194.467,33.2 C191.524,33.2 189.343,31.504 189.343,28.437 L189.344,28.437 Z M207.183,29.627 L209.58,29.627 L209.58,20.387 L207.183,20.387 L207.183,17.212 L213.541,17.212 L213.541,20.064 C214.341,18.584 215.903,16.814 218.738,16.814 L219.064,16.814 L219.064,20.929 L218.41,20.929 C216.083,20.929 214.558,21.399 213.686,21.939 L213.686,29.626 L216.41,29.626 L216.41,32.802 L207.183,32.802 L207.183,29.626 L207.183,29.627 Z M225.02,9.344 C226.582,9.344 227.854,10.608 227.854,12.16 C227.854,13.712 226.582,14.975 225.02,14.975 C223.458,14.975 222.186,13.712 222.186,12.16 C222.186,10.608 223.458,9.344 225.02,9.344 L225.02,9.344 Z M220.77,29.627 L223.167,29.627 L223.167,20.387 L220.769,20.387 L220.769,17.212 L227.271,17.212 L227.271,29.627 L229.668,29.627 L229.668,32.803 L220.768,32.803 L220.768,29.627 L220.77,29.627 Z M243.766,24.72 C243.766,22.157 242.822,19.847 239.952,19.847 C238.789,19.847 237.699,20.207 236.754,20.713 L236.754,30.06 C237.19,30.097 237.699,30.132 238.208,30.132 C241.95,30.132 243.766,28.292 243.766,24.719 L243.766,24.72 Z M232.649,32.623 L232.649,10.463 L230.249,10.463 L230.249,7.288 L236.753,7.288 L236.753,17.898 C238.039739,17.176273 239.492729,16.8032874 240.968,16.816 C245.4,16.816 247.942,19.812 247.942,24.684 C247.942,30.458 244.346,33.201 238.387,33.201 C236.424,33.201 234.063,32.913 232.647,32.624 L232.649,32.623 Z M254.193,23.456 L261.131,23.456 C260.987,21.616 260.261,19.774 257.864,19.774 C255.501,19.774 254.484,21.507 254.194,23.456 L254.193,23.456 Z M250.086,25.008 C250.086,20.28 252.812,16.815 257.79,16.815 C262.73,16.815 264.984,20.28 264.984,24.575 C264.987742,25.1549382 264.938538,25.7340075 264.837,26.305 L254.23,26.305 C254.63,28.761 256.118,30.097 258.95,30.097 C261.095,30.097 262.767,29.303 264.002,28.653 L264.002,31.793 C262.767,32.479 260.877,33.2 258.334,33.2 C252.812,33.2 250.086,29.735 250.086,25.008 L250.086,25.008 Z" id="Shape" fill="#1B1A18"></path>
            </g>
        </g>
    </g>
</svg>
